public/assets/export.svg

<svg width="14" height="15" viewBox="0 0 14 15" fill="none" xmlns="http://www.w3.org/2000/svg">
<path d="M11.6667 12.6499H2.66675C2.25425 12.6499 1.91675 12.3124 1.91675 11.8999V2.8999C1.91675 2.4874 2.25425 2.1499 2.66675 2.1499H6.41675C6.82925 2.1499 7.16675 1.8124 7.16675 1.3999C7.16675 0.987402 6.82925 0.649902 6.41675 0.649902H1.91675C1.08425 0.649902 0.416748 1.3249 0.416748 2.1499V12.6499C0.416748 13.4749 1.09175 14.1499 1.91675 14.1499H12.4167C13.2417 14.1499 13.9167 13.4749 13.9167 12.6499V8.1499C13.9167 7.7374 13.5792 7.3999 13.1667 7.3999C12.7542 7.3999 12.4167 7.7374 12.4167 8.1499V11.8999C12.4167 12.3124 12.0792 12.6499 11.6667 12.6499ZM8.66675 1.3999C8.66675 1.8124 9.00425 2.1499 9.41675 2.1499H11.3592L4.51175 8.9974C4.21925 9.2899 4.21925 9.7624 4.51175 10.0549C4.80425 10.3474 5.27675 10.3474 5.56925 10.0549L12.4167 3.2074V5.1499C12.4167 5.5624 12.7542 5.8999 13.1667 5.8999C13.5792 5.8999 13.9167 5.5624 13.9167 5.1499V1.3999C13.9167 0.987402 13.5792 0.649902 13.1667 0.649902H9.41675C9.00425 0.649902 8.66675 0.987402 8.66675 1.3999Z" fill="url(#paint0_linear_1113_19730)"/>
<defs>
<linearGradient id="paint0_linear_1113_19730" x1="7.16675" y1="0.649902" x2="7.16675" y2="14.1499" gradientUnits="userSpaceOnUse">
<stop stop-color="white"/>
<stop offset="0.640625" stop-color="#9CECFD"/>
</linearGradient>
</defs>
</svg>

<svg width="14" height="15" fill="none" xmlns="http://www.w3.org/2000/svg"><path d="M11.667 12.65h-9a.752.752 0 0 1-.75-.75v-9c0-.413.337-.75.75-.75h3.75c.412 0 .75-.338.75-.75a.752.752 0 0 0-.75-.75h-4.5a1.5 1.5 0 0 0-1.5 1.5v10.5c0 .825.675 1.5 1.5 1.5h10.5c.825 0 1.5-.675 1.5-1.5v-4.5a.752.752 0 0 0-.75-.75.752.752 0 0 0-.75.75v3.75c0 .412-.338.75-.75.75Zm-3-11.25c0 .412.337.75.75.75h1.942L4.512 8.997a.747.747 0 1 0 1.057 1.058l6.848-6.848V5.15c0 .412.337.75.75.75.412 0 .75-.338.75-.75V1.4a.752.752 0 0 0-.75-.75h-3.75a.752.752 0 0 0-.75.75Z" fill="url(#a)"/><defs><linearGradient id="a" x1="7.167" y1=".65" x2="7.167" y2="14.15" gradientUnits="userSpaceOnUse"><stop stop-color="#fff"/><stop offset=".641" stop-color="#9CECFD"/></linearGradient></defs></svg>
